!!!COM: des Prez, Josquin
!!!CDT: ~1450-1521/08/27
!!!COA: Ockeghem, Johannes
!!!OPR: Missa Gaudeamus
!!!ONM: 1
!!!OTL: Kyrie
!!!AGN: Mass; Kyrie
!!!SCT: NJE 4.2
!!!SCA: New Josquin Edition 4.2
!!!voices: 4
!!!voices-OPR: 4
**kern	**text	**kern	**text	**kern	**text	**kern	**text
*staff4	*	*staff3	*	*staff2	*	*staff1	*
*Ivox	*	*Ivox	*	*Ivox	*	*Ivox	*
*I"Bassus	*	*I"Tenor	*	*I"Altus	*	*I"Superius	*
*I'B	*	*I'T	*	*I'A	*	*I'S	*
*>[A,B,C]	*	*>[A,B,C]	*	*>[A,B,C]	*	*>[A,B,C]	*
*>Kyrie1[A]	*	*>Kyrie1[A]	*	*>Kyrie1[A]	*	*>Kyrie1[A]	*
*>Christe[B]	*	*>Christe[B]	*	*>Christe[B]	*	*>Christe[B]	*
*>Kyrie2[C]	*	*>Kyrie2[C]	*	*>Kyrie2[C]	*	*>Kyrie2[C]	*
*clefF4	*	*clefGv2	*	*clefGv2	*	*clefG2	*
*k[]	*	*k[]	*	*k[]	*	*k[]	*
*>A	*	*>A	*	*>A	*	*>A	*
*M3/1	*	*M3/1	*	*M3/1	*	*M3/1	*
*met(O)	*	*met(O)	*	*met(O)	*	*met(O)	*
=1-	=1-	=1-	=1-	=1-	=1-	=1-	=1-
!!section: Kyrie I
!!!OMD: Kyrie I
0.r	.	0.r	.	1G	Ky-	0.r	.
.	.	.	.	2A/	-ri-	.	.
.	.	.	.	2.A/	-e	.	.
.	.	.	.	4B\	.	.	.
.	.	.	.	4c\	.	.	.
.	.	.	.	4d\	.	.	.
=2	=2	=2	=2	=2	=2	=2	=2
0.r	.	0.r	.	1e	.	1g	Ky-
.	.	.	.	0f	.	2a/	-ri-
.	.	.	.	.	.	2.a/	-e
.	.	.	.	.	.	4b\	.
.	.	.	.	.	.	4cc\	.
.	.	.	.	.	.	4dd\	.
=3	=3	=3	=3	=3	=3	=3	=3
0.r	.	0.r	.	2e\	.	1ee	.
.	.	.	.	1a	.	.	.
.	.	.	.	.	.	0ff	.
.	.	.	.	1d	.	.	.
.	.	.	.	[2a\	.	.	.
=4	=4	=4	=4	=4	=4	=4	=4
0.r	.	0.r	.	4a\]	.	1ee	.
.	.	.	.	4g\	.	.	.
.	.	.	.	2e\	.	.	.
.	.	.	.	2f\	e-	2dd\	e-
.	.	.	.	2.g\	-lei-	2ee\	-lei-
.	.	.	.	.	.	4dd\	.
.	.	.	.	4c\	.	2ee\	.
.	.	.	.	2c\	-son,	.	.
.	.	.	.	.	.	8dd\L	.
.	.	.	.	.	.	8cc\J	.
=5	=5	=5	=5	=5	=5	=5	=5
0.r	.	1G	Ky-	2.g\	e-	2b\	.
.	.	.	.	.	.	2dd\	.
.	.	.	.	4f\	.	.	.
.	.	2A/	-ri-	4e\	.	2.cc\	.
.	.	.	.	4d\	.	.	.
.	.	2.A/	-e	2e\	.	.	.
.	.	.	.	.	.	4b\	.
.	.	.	.	2f\	.	4a/	.
.	.	4B\	.	.	.	4g/	.
.	.	4c\	.	[2e\	-lei-	2a/	.
.	.	4d\	.	.	.	.	.
=6	=6	=6	=6	=6	=6	=6	=6
1C	Ky-	1e	.	4e\]	.	1g	-son,
.	.	.	.	4d\	.	.	.
.	.	.	.	4c\	.	.	.
.	.	.	.	4B\	.	.	.
2D\	-ri-	0f	.	1A	.	2r	.
2.D\	-e,	.	.	.	.	2f/	ky-
.	.	.	.	1d	.	2.a/	.
4E\	.	.	.	.	.	.	.
4F\	.	.	.	.	.	.	.
4G\	.	.	.	.	.	4b\	.
=7	=7	=7	=7	=7	=7	=7	=7
1A	.	1e	.	1c	-son,	1cc	.
0B-	.	1r	.	2d\	ky-	2f/	.
.	.	.	.	2G/	-ri-	1.g	-ri-
.	.	1r	.	1d	-e	.	.
=8	=8	=8	=8	=8	=8	=8	=8
1A	.	0e	e-	2.c\	e-	2a/	-e
.	.	.	.	.	.	1cc	e-
.	.	.	.	4B\	.	.	.
1r	.	.	.	2A/	.	.	.
.	.	.	.	2G/	.	2b\	.
1r	.	[1e	-lei-	2A/	-lei-	2cc\	-lei-
.	.	.	.	4G/	.	4b\	.
.	.	.	.	[4A/	.	[4cc\	.
=9	=9	=9	=9	=9	=9	=9	=9
1C	ky-	1e]	.	4A/]	.	4cc\]	.
.	.	.	.	4B\	.	4dd\	.
.	.	.	.	2c\	.	2ee\	.
2D\	-ri-	0d	.	2F/	-son,	2ff\	.
2.D\	-e,	.	.	2.f\	e-	2dd\	.
.	.	.	.	.	.	1ff	.
4E\	.	.	.	4g\	.	.	.
4F\	.	.	.	[2a\	-lei-	.	.
4G\	.	.	.	.	.	.	.
=10	=10	=10	=10	=10	=10	=10	=10
1A	.	1c	.	4a\]	.	1ee	.
.	.	.	.	4g\	.	.	.
.	.	.	.	4e\	.	.	.
.	.	.	.	2f\	.	.	.
0B-i	.	1d	.	.	.	0dd	-son,
.	.	.	.	4g\	.	.	.
.	.	.	.	4f\	.	.	.
.	.	.	.	2g\	.	.	.
.	.	1d	-son,	.	.	.	.
.	.	.	.	4f\	.	.	.
.	.	.	.	2g\	-son,	.	.
=11	=11	=11	=11	=11	=11	=11	=11
1A	.	0e	ky-	2r	.	2.cc\	ky-
.	.	.	.	2.c\	ky-	.	.
.	.	.	.	.	.	4b\	.
1r	.	.	.	.	.	4a/	.
.	.	.	.	4B\	.	4g/	.
.	.	.	.	2A/	-ri-	2cc\	-ri-
1r	.	[1g	-ri-	2G/	-e	2b\	-e
.	.	.	.	[2c\	e-	[2ee\	.
=12	=12	=12	=12	=12	=12	=12	=12
1C	e-	1g]	.	4c\]	.	4ee\]	.
.	.	.	.	4d\	.	4dd\	.
.	.	.	.	2e\	.	4cc\	.
.	.	.	.	.	.	4b\	.
2D\	.	0f	-e	3f\V	-lei-	2a/	.
.	.	.	.	3.d\	.	.	.
2.D\	-lei-	.	.	.	.	2.ff\	e-
.	.	.	.	6c\Z	.	.	.
.	.	.	.	3d\V	.	.	.
4E\	.	.	.	.	.	4ee\	.
.	.	.	.	3.A/	.	.	.
4F\	.	.	.	.	.	2dd\	.
4G\	.	.	.	.	.	.	.
.	.	.	.	6B\Z	.	.	.
=13	=13	=13	=13	=13	=13	=13	=13
1A	.	1e	.	1c	.	4cc\	-lei-
.	.	.	.	.	.	4b\	.
.	.	.	.	.	.	4a/	.
.	.	.	.	.	.	4g/	.
0B-i	.	0d	.	2d\	.	3f/V	.
.	.	.	.	.	.	3.b-\	.
.	.	.	.	2G/	.	.	.
.	.	.	.	.	.	6a/Z	.
.	.	.	.	1d	.	3a/V	.
.	.	.	.	.	.	3f/	.
.	.	.	.	.	.	3g/Z	.
=14	=14	=14	=14	=14	=14	=14	=14
[0.Al	-son.	1e	.	0c	.	[0.al	-son.
.	.	2f\	-lei-	.	.	.	.
.	.	2e\	.	.	.	.	.
.	.	1f	.	1F	.	.	.
=15	=15	=15	=15	=15	=15	=15	=15
0.A]	.	0.el	-son.	0.cl	-son.	0.a]	.
!!LO:LB:i:g=z			.		.
=16||	=16||	=16||	=16||	=16||	=16||	=16||	=16||
*>B	*	*>B	*	*>B	*	*>B	*
!!section: Christe
!!!OMD: Christe
*M2/1	*	*M2/1	*	*M2/1	*	*M2/1	*
*met(C|)	*	*met(C|)	*	*met(C|)	*	*met(C|)	*
1.c	Chri-	[0e	Chri-	0r	.	0r	.
2A\	.	.	.	.	.	.	.
=17	=17	=17	=17	=17	=17	=17	=17
1A	-ste,	0e_	.	1.c	Chri-	0r	.
2r	.	.	.	.	.	.	.
[2c\	Chri-	.	.	2A/	.	.	.
=18	=18	=18	=18	=18	=18	=18	=18
2c\]	.	0e_	.	1A	-ste,	0r	.
4B\	.	.	.	.	.	.	.
4A\	.	.	.	.	.	.	.
2G\	.	.	.	2r	.	.	.
[2A\	.	.	.	[2c\	Chri-	.	.
=19	=19	=19	=19	=19	=19	=19	=19
1A]	.	0e]	.	2c\]	.	0r	.
.	.	.	.	4B\	.	.	.
.	.	.	.	4A/	.	.	.
2B\	.	.	.	2G/	.	.	.
2c\	.	.	.	2A/	.	.	.
=20	=20	=20	=20	=20	=20	=20	=20
1d	-ste,	[0d	.	1.B-	.	0r	.
1G	.	.	.	.	.	.	.
.	.	.	.	2G/	.	.	.
=21	=21	=21	=21	=21	=21	=21	=21
1.B-	Chri-	0d_	.	1G	-ste,	0r	.
.	.	.	.	2r	.	.	.
2G\	.	.	.	[2B-i\	Chri-	.	.
=22	=22	=22	=22	=22	=22	=22	=22
1G	-ste,	0d_	.	2B-\]	.	0r	.
.	.	.	.	4A/	.	.	.
.	.	.	.	4G/	.	.	.
2r	.	.	.	2F/	.	.	.
[2B-i\	Chri-	.	.	[2G/	.	.	.
=23	=23	=23	=23	=23	=23	=23	=23
2B-\]	.	0d]	.	1G]	.	0r	.
4A\	.	.	.	.	.	.	.
4G\	.	.	.	.	.	.	.
2F\	.	.	.	2A/	.	.	.
2G\	.	.	.	2Bni\	.	.	.
=24	=24	=24	=24	=24	=24	=24	=24
0A	.	[0c	-ste	1c	-ste,	1.cc	Chri-
.	.	.	.	2r	.	.	.
.	.	.	.	[2c\	Chri-	2a/	.
=25	=25	=25	=25	=25	=25	=25	=25
0F	.	0c_	.	2c\]	.	1a	-ste,
.	.	.	.	4B\	.	.	.
.	.	.	.	4A/	.	.	.
.	.	.	.	1A	-ste,	2r	.
.	.	.	.	.	.	[2cc\	Chri-
=26	=26	=26	=26	=26	=26	=26	=26
0C	-ste,	0c]	.	2r	.	2cc\]	.
.	.	.	.	1c	Chri-	4b\	.
.	.	.	.	.	.	4a/	.
.	.	.	.	.	.	2g/	.
.	.	.	.	4B\	.	2a/	.
.	.	.	.	4A/	.	.	.
=27	=27	=27	=27	=27	=27	=27	=27
1r	.	[0d	.	1G	-ste,	1.b-	.
[1G	Chri-	.	.	[1B-	Chri-	.	.
.	.	.	.	.	.	2g/	.
=28	=28	=28	=28	=28	=28	=28	=28
2G\]	.	0d]	.	1B-]	.	1g	-ste,
4F\	.	.	.	.	.	.	.
4E\	.	.	.	.	.	.	.
2F\	.	.	.	2A/	.	2r	.
[2G\	.	.	.	2G/	.	[2b-i\	Chri-
=29	=29	=29	=29	=29	=29	=29	=29
1G]	.	0d	e-	1B-i	-ste	2b-\]	.
.	.	.	.	.	.	4a/	.
.	.	.	.	.	.	4g/	.
2D\	.	.	.	2A/	e-	2f/	.
[2G\	.	.	.	[2B-i\	-lei-	[2g/	.
=30	=30	=30	=30	=30	=30	=30	=30
2G\]	.	0d	-lei-	4B-\]	.	1g]	.
.	.	.	.	4c\	.	.	.
4F\	.	.	.	4d\	.	.	.
4E\	.	.	.	4e\	.	.	.
1D	.	.	.	2f\	.	2a/	.
.	.	.	.	2d\	.	2bni\	.
=31	=31	=31	=31	=31	=31	=31	=31
1A	-ste,	[0c	-son,	2e\	.	1cc	-ste
.	.	.	.	2.A/	.	.	.
2r	.	.	.	.	.	2a/	e-
.	.	.	.	4G/	.	.	.
[2A\	e-	.	.	4A/	.	[2cc\	-lei-
.	.	.	.	4Bni\	.	.	.
=32	=32	=32	=32	=32	=32	=32	=32
4A\]	.	0c]	.	1c	-son,	4cc\]	.
4G\	.	.	.	.	.	4b\	.
4A\	.	.	.	.	.	2a/	.
4B\	.	.	.	.	.	.	.
2c\	.	.	.	1r	.	2g/	.
[2F\	-lei-	.	.	.	.	[2a/	.
=33	=33	=33	=33	=33	=33	=33	=33
4F\]	.	2.A/	e-	0r	.	4a/]	.
4E\	.	.	.	.	.	4g/	.
4F\	.	.	.	.	.	2f/	.
4G\	.	4B\	.	.	.	.	.
2A\	.	2c\	.	.	.	2e/	.
[2D\	.	[2d\	-lei-	.	.	2d/	.
=34	=34	=34	=34	=34	=34	=34	=34
4D\]	.	1d]	.	0r	.	1a	-son,
4C/	.	.	.	.	.	.	.
4D\	.	.	.	.	.	.	.
4E\	.	.	.	.	.	.	.
2F\	.	2c\	.	.	.	1r	.
[2G\	.	[2B\	.	.	.	.	.
=35	=35	=35	=35	=35	=35	=35	=35
4G\]	.	2B\]	.	0r	.	0r	.
4E\	.	.	.	.	.	.	.
1A	.	2A/	.	.	.	.	.
.	.	1B	.	.	.	.	.
2G#i\	.	.	.	.	.	.	.
=36	=36	=36	=36	=36	=36	=36	=36
1A	-son,	1.A	-son,	1e	e-	1r	.
[1D	Chri-	.	.	1f	.	[1a	Chri-
.	.	[2d\	e-	.	.	.	.
=37	=37	=37	=37	=37	=37	=37	=37
1D]	.	1d]	.	2.F/	-lei-	0a]	.
.	.	.	.	4G/	.	.	.
1F	.	2c\	.	2A/	.	.	.
.	.	[2d\	-lei-	2F/	.	.	.
=38	=38	=38	=38	=38	=38	=38	=38
1E	-ste	2d\]	.	2.G/	.	1g	-ste
.	.	2c\	.	.	.	.	.
.	.	.	.	4A/	.	.	.
1D	.	1d	.	2B-\	.	1f	.
.	.	.	.	[2A/	.	.	.
=39	=39	=39	=39	=39	=39	=39	=39
2.A\	e-	[0cl	-son.	4A/]	.	2e/	.
.	.	.	.	4Bni\	.	.	.
.	.	.	.	4c\	.	2a/	e-
4B\	.	.	.	4d\	.	.	.
2c\	.	.	.	2e\	.	2g/	.
[2F\	-lei-	.	.	2f\	.	[2a/	-lei-
=40	=40	=40	=40	=40	=40	=40	=40
2F\]	.	0c_	.	1.F	.	2a/]	.
4E\	.	.	.	.	.	4g/	.
4D\	.	.	.	.	.	4f/	.
2F\	.	.	.	.	.	2a/	.
2E\	.	.	.	[2G/	.	2g/	.
=41	=41	=41	=41	=41	=41	=41	=41
1.C	.	0c_	.	1G]	.	[0el	-son.
.	.	.	.	1A	.	.	.
2AA/	.	.	.	.	.	.	.
=42	=42	=42	=42	=42	=42	=42	=42
0AAl	-son.	0c]	.	0Al	-son.	0e]	.
!!LO:LB:i:g=z	.				.
=43||	=43||	=43||	=43||	=43||	=43||	=43||	=43||
*>C	*	*>C	*	*>C	*	*>C	*
!!section: Kyrie II
!!!OMD: Kyrie II
*M3/1	*	*M3/1	*	*M3/1	*	*M3/1	*
*met(O)	*	*met(O)	*	*met(O)	*	*met(O)	*
0.r	.	0.r	.	0d	Ky-	0f	Ky-
.	.	.	.	1B	-ri-	1g	-ri-
=44	=44	=44	=44	=44	=44	=44	=44
0.r	.	0.r	.	1e	-e	1g	-e
.	.	.	.	2c\	.	1.a	.
.	.	.	.	1f	.	.	.
.	.	.	.	2g\	.	2b\	.
=45	=45	=45	=45	=45	=45	=45	=45
0F	Ky-	0.r	.	0a	.	1.cc	.
.	.	.	.	.	.	2a/	e-
1G	-ri-	.	.	2.g\	e-	2.b\	-lei-
.	.	.	.	4f\	.	4cc\	.
=46	=46	=46	=46	=46	=46	=46	=46
1G	-e	0.r	.	2.d\	.	2.dd\	.
.	.	.	.	4e\	.	4cc\	.
1.A	.	.	.	2.f\	-lei-	2.a/	.
.	.	.	.	4e\	.	4b\	.
.	.	.	.	2.c\	.	2.cc\	.
2B\	.	.	.	.	.	.	.
.	.	.	.	4d\	.	4b\	.
=47	=47	=47	=47	=47	=47	=47	=47
1c	.	0c	Ky-	1.e	.	1g	.
1A	e-	.	.	.	.	1a	.
.	.	.	.	2f\	.	.	.
1G	-lei-	1d	-ri-	1g	.	2.b\	.
.	.	.	.	.	.	4cc\	.
=48	=48	=48	=48	=48	=48	=48	=48
1B-	.	1d	-e	1G	-son,	2dd\	.
.	.	.	.	.	.	2g/	.
0A	.	1.e	.	1r	.	1.cc	-son,
.	.	.	.	1c	e-	.	.
.	.	2f\	.	.	.	4b\	e-
.	.	.	.	.	.	4a/	.
=49	=49	=49	=49	=49	=49	=49	=49
0G	-son,	1g	.	2d\	-lei-	2b\	-lei-
.	.	.	.	2.e\	.	2.g/	.
.	.	1e	e-	.	.	.	.
.	.	.	.	4f\	.	4a/	.
.	.	.	.	2.g\	.	4b\	.
.	.	.	.	.	.	4cc\	.
2.B-i\	e-	1d	-lei-	.	.	2dd\	.
.	.	.	.	4f\	.	.	.
.	.	.	.	[2d\	.	[2ff\	.
4A\	.	.	.	.	.	.	.
=50	=50	=50	=50	=50	=50	=50	=50
2.F\	.	1f	.	2d\]	.	2ff\]	.
.	.	.	.	1a	.	4ee\	.
4G\	.	.	.	.	.	4dd\	.
2A\	-lei-	0e	.	.	.	2cc\	.
2B-i\	.	.	.	2g\	.	1dd	.
1A	.	.	.	1a	.	.	.
.	.	.	.	.	.	2cc#i\	.
=51	=51	=51	=51	=51	=51	=51	=51
0D	-son,	0d	-son,	1f	-son,	1dd	-son,
.	.	.	.	2r	.	2.a/	ky-
.	.	.	.	2f\	ky-	.	.
.	.	.	.	.	.	4b\	.
1r	.	1r	.	2e\	.	2cc\	.
.	.	.	.	2d\	-ri-	2dd\	-ri-
=52	=52	=52	=52	=52	=52	=52	=52
0.r	.	0.r	.	2.f\	-e	2a/	-e
.	.	.	.	.	.	2ff\	e-
.	.	.	.	4e\	.	.	.
.	.	.	.	2c\	.	2ee\	.
.	.	.	.	1d	.	2dd\	.
.	.	.	.	.	.	2.ff\	-lei-
.	.	.	.	2f\	e-	.	.
.	.	.	.	.	.	4ee\	.
=53	=53	=53	=53	=53	=53	=53	=53
0.r	.	0.r	.	2e\	.	2cc\	.
.	.	.	.	2d\	.	1dd	.
.	.	.	.	2.f\	-lei-	.	.
.	.	.	.	.	.	2cc\	.
.	.	.	.	4e\	.	.	.
.	.	.	.	4f\	.	2dd\	.
.	.	.	.	4g\	.	.	.
.	.	.	.	[2a\	.	2ff\	.
=54	=54	=54	=54	=54	=54	=54	=54
0.r	.	0.r	.	2a\]	.	2ee\	.
.	.	.	.	2f\	.	1dd	.
.	.	.	.	2g\	.	.	.
.	.	.	.	1a	.	2cc\	.
.	.	.	.	.	.	1b	.
.	.	.	.	2g#i\	.	.	.
=55	=55	=55	=55	=55	=55	=55	=55
2r	.	0.r	.	2a\	-son,	1a	-son,
2F\	e-	.	.	2A/	e-	.	.
2E\	.	.	.	2B\	.	1r	.
2D\	.	.	.	2.d\	.	.	.
2.F\	-lei-	.	.	.	.	1r	.
.	.	.	.	4c\	.	.	.
.	.	.	.	2f\	.	.	.
4E\	.	.	.	.	.	.	.
=56	=56	=56	=56	=56	=56	=56	=56
2C/	.	0.r	.	4e\	.	0.r	.
.	.	.	.	4d\	.	.	.
1D	.	.	.	2.f\	-lei-	.	.
.	.	.	.	4e\	.	.	.
2C/	.	.	.	1e	.	.	.
2D\	.	.	.	.	.	.	.
2F\	.	.	.	2d\	.	.	.
=57	=57	=57	=57	=57	=57	=57	=57
2E\	.	0.r	.	2c\	.	0.r	.
1D	.	.	.	2.B\	.	.	.
.	.	.	.	4A/	.	.	.
2C/	.	.	.	1A	.	.	.
1BB	.	.	.	.	.	.	.
.	.	.	.	2G#i/	.	.	.
=58	=58	=58	=58	=58	=58	=58	=58
0.AA	-son,	0.c	ky-	0.A	-son,	1cc	ky-
.	.	.	.	.	.	2a/	-ri-
.	.	.	.	.	.	2.cc\	-e
.	.	.	.	.	.	4b\	.
.	.	.	.	.	.	2a/	.
=59	=59	=59	=59	=59	=59	=59	=59
2r	.	1e	.	2.c\	ky-	2.g/	.
2c\	e-	.	.	.	.	.	.
.	.	.	.	4B\	.	4a/	.
2B\	.	2d\	-ri-	2G/	.	2b\	.
2A\	.	2.e\	-e	2c\	-ri-	1cc	.
2.c\	-lei-	.	.	2A/	-e	.	.
.	.	4d\	.	.	.	.	.
.	.	4e\	.	2c\	.	2a/	e-
4B\	.	4f\	.	.	.	.	.
=60	=60	=60	=60	=60	=60	=60	=60
2G\	.	1g	.	2B\	.	2b\	-lei-
1A	.	.	.	2A/	.	2.cc\	.
.	.	2f\	e-	1d	e-	.	.
.	.	.	.	.	.	4a/	.
2G\	.	1g	-lei-	.	.	2b\	.
2A\	.	.	.	2.c\	-lei-	2cc\	.
2c\	.	2e\	.	.	.	2a/	.
.	.	.	.	4B\	.	.	.
=61	=61	=61	=61	=61	=61	=61	=61
2B\	.	2d\	.	2G/	.	2b\	.
1A	.	2.f\	.	2A/	.	2.cc\	.
.	.	.	.	2F/	.	.	.
.	.	4e\	.	.	.	4a/	.
2G\	.	1e	.	2G/	.	2b\	.
1F	.	.	.	2.A/	.	2cc\	.
.	.	2d\	.	.	.	4b\	.
.	.	.	.	4B\	.	4a/	.
=62	=62	=62	=62	=62	=62	=62	=62
0.E	.	[0.el	-son.	2c\	.	2.g/	.
.	.	.	.	1B	.	.	.
.	.	.	.	.	.	4f/	.
.	.	.	.	.	.	2g/	.
.	.	.	.	2A/	.	1a	.
.	.	.	.	1B	.	.	.
.	.	.	.	.	.	2g#i/	.
=63	=63	=63	=63	=63	=63	=63	=63
0.AAl	-son.	0.e]	.	0.Al	-son.	0.al	-son.
==	==	==	==	==	==	==	==
*-	*-	*-	*-	*-	*-	*-	*-
!!!RDF**kern: l=long note in original notation
!!!RDF**kern: i=editorial accidental
!!!ENC: Jesse Rodin; Victoria Chang 2011/04/11
!!!SMS: JenaU 32
!!!END: 2011/04/11/
!!!EED: Jesse Rodin
!!!EEV: 2011/04/11/
!!attribution-level@Jos: 1 (secure, core group [checkmark])
!!!ONB: Translated from MusicXML and edited on 2011/04/12/ by Craig Sapp
!!muse2ps: T^@{OPR}^u^@{ONM}{. }@{OTL}^C^@{COM}\n@{SCT}^i2I150v90,90,90,120c105z18l2700t130
